src/components/common/icons/search.svg

<svg height="40" viewBox="0 0 40 40" width="40" xmlns="http://www.w3.org/2000/svg"><path d="m25.6586538.08942308c-5.5157136-.00277037-10.5426697 3.16274275-12.923617 8.13810151-2.3809473 4.97535881-1.6925517 10.87594121 1.7697709 15.16959081l-14.48942308 14.4875 2.1701923 2.1711538 14.49230768-14.4884615c4.9020293 3.9518222 11.8096656 4.2398857 17.0237015.7099254s7.5122026-10.0504549 5.663776-16.0696001c-1.8484266-6.01914523-7.4101404-10.12593952-13.7067083-10.12109454zm0 25.58173072c-6.2163896 0-11.2557692-5.0393795-11.2557692-11.2557692 0-6.21638968 5.0393796-11.25576922 11.2557692-11.25576922 6.2163897 0 11.2557693 5.03937954 11.2557693 11.25576922-.0063581 6.2140656-5.0417048 11.2502726-11.2557693 11.2576923z"/></svg>

<?xml version="1.0" encoding="UTF-8"?>
<svg width="40px" height="40px" viewBox="0 0 40 40" version="1.1" xmlns="http://www.w3.org/2000/svg" xmlns:xlink="http://www.w3.org/1999/xlink">
    <!-- Generator: Sketch 52.5 (67469) - http://www.bohemiancoding.com/sketch -->
    <title>Icons/.search</title>
    <desc>Created with Sketch.</desc>
    <g id="Vapaaehtoisalusta-Layouts" stroke="none" stroke-width="1" fill="none" fill-rule="evenodd">
        <g id="HKI-Ikonit" transform="translate(-1129.000000, -912.000000)" fill="#000000">
            <g id="Icons/.search" transform="translate(1129.000000, 912.000000)">
                <g id="search">
                    <path d="M25.6586538,0.0894230769 C20.1429402,0.0866527056 15.1159841,3.25216583 12.7350368,8.22752459 C10.3540895,13.2028834 11.0424851,19.1034658 14.5048077,23.3971154 L0.0153846154,37.8846154 L2.18557692,40.0557692 L16.6778846,25.5673077 C21.5799139,29.5191299 28.4875502,29.8071934 33.7015861,26.2772331 C38.915622,22.7472728 41.2137887,16.2267782 39.3653621,10.207633 C37.5169355,4.18848777 31.9552217,0.0816934831 25.6586538,0.0865384615 L25.6586538,0.0894230769 Z M25.6586538,25.6711538 C19.4422642,25.6711538 14.4028846,20.6317743 14.4028846,14.4153846 C14.4028846,8.19899492 19.4422642,3.15961538 25.6586538,3.15961538 C31.8750435,3.15961538 36.9144231,8.19899492 36.9144231,14.4153846 C36.908065,20.6294502 31.8727183,25.6656572 25.6586538,25.6730769 L25.6586538,25.6711538 Z" id="Shape" fill-rule="nonzero"></path>
                </g>
            </g>
        </g>
    </g>
</svg>
